X:1
T:Title
%%score { ( 1 4 ) | ( 2 3 ) }
L:1/8
Q:1/4=90
M:6/8
K:D
V:1 treble nm="Grand Piano"
V:4 treble 
V:2 bass 
V:3 bass 
V:1
 FFF F[EG][FA] | [GB][FA][=F^G] [^FA]3 | [Fd][Ac][B,GB] [DFA][EG][A,DF] | [DF]3 .[CE]3 | %4
w: Chas.~H.~Gabriel * * * * *||||
 FFF F[EG][FA] | [GB][FA][=F^G] [^FA]3 | ^GAB dcB | B3 .A3 |[M:9/8] z3 [Fd]3 .[FA]3 | GAB A3 F3 | %10
w: ||||||
 z3 [Ge]3 .[CE]3 | [A,EG][A,FA][CGB] [DFA]6 | z3 [Fd]3 .[FA]3 | GAB A3 F3 | DEF A2 G F3 | %15
w: |||||
[M:3/4] [CE]3 D3- | D4 z2 |] %17
w: ||
V:2
 [D,A,D][D,A,D][D,A,D] [D,A,D][D,A,][D,D] | [D,D][D,D][D,D] [D,D]3 | [D,A,][D,A,]D, z A,D, | %3
 [A,,A,]3 .[A,,A,]3 | [D,A,D][D,A,D][D,A,D] [D,A,D][D,A,][D,D] | [D,D][D,D][D,D] [D,D]3 | z3 .B,3 | %7
 [E,^G,D]3[K:treble] .[A,C]3 |[M:9/8] FEG[K:bass] [D,A,]D,D, D,D,[D,D] | %9
 [D,B,D][D,F,D][D,G,D] [D,F,D]3 [D,A,D]3 | FGF[K:bass] A,,A,,A,, A,,A,,A,, | A,,A,,A,, D,6 | %12
 FEG[K:bass] [D,A,]D,D, D,D,[D,D] | [D,B,D][D,F,D][D,G,D] [D,F,D]3 [D,A,D]3 | %14
 [D,F,][D,G,D][D,A,D] [F,A,D]2 [G,B,D] [A,D]3 |[M:3/4] [A,,G,]3 [D,F,]3- | [D,F,]4 z2 |] %17
V:3
 x6 | x6 | z3 .D,3 | x6 | x6 | x6 | [E,DE][E,CE][E,^G,E] [E,E]-[E,A,E][E,G,E] | x3[K:treble] x3 | %8
[M:9/8] x3[K:bass] x6 | x9 | x3[K:bass] x6 | x9 | x3[K:bass] x6 | x9 | x9 |[M:3/4] x6 | x6 |] %17
V:4
 x6 | x6 | x6 | x6 | x6 | x6 | x6 | x6 |[M:9/8] dce z A,A, DDF | x9 | Acd CCC A,A,[A,DF] | x9 | %12
 dce z A,A, DDF | x9 | x9 |[M:3/4] x6 | x6 |] %17

